X:6517
T:The Bay of Biscay
O:england
M:3/4
L:1/8
R:Waltz
K:G
dC|B2 BdcB|A2 AcBA|GD 3)EFG AB|C6|e2 cB A2|Bc dB AG|D2 G2 F2|G4:||
dC|B2 Bcde|=f2 d2 d2|cA 3)Bcd ef|g4 ag|f2 d2 ed|c2 A2 AG|F2 d2 ^c2|d4 dc
||


